www/assets/icons/text_rotation_angledown.svg

<svg width="24" height="24" viewBox="0 0 24 24" xmlns="http://www.w3.org/2000/svg" fill='currentColor'><path d="M20.4 4.4848L19.34 3.4248L8.19998 7.84481L9.67998 9.3248L11.87 8.4048L15.41 11.9448L14.49 14.1348L15.97 15.6148L20.4 4.4848ZM13.59 7.58481L18.46 5.3548L16.23 10.2248L13.59 7.58481ZM15.27 20.5748V16.3348L13.86 17.7448L5.01998 8.9048L3.59998 10.3248L12.44 19.1648L11.03 20.5748H15.27Z"/></svg>

<svg xmlns="http://www.w3.org/2000/svg" width="24" height="24" viewBox="0 0 24 24" fill='currentColor'><path d="m20.4 4.485-1.06-1.06L8.2 7.845l1.48 1.48 2.19-.92 3.54 3.54-.92 2.19 1.48 1.48zm-6.81 3.1 4.87-2.23-2.23 4.87zm1.68 12.99v-4.24l-1.41 1.41-8.84-8.84-1.42 1.42 8.84 8.84-1.41 1.41z"/></svg>
